public/img/events/hearts.svg

<svg width="200" height="200" viewBox="0 0 200 200" fill="none" xmlns="http://www.w3.org/2000/svg">
<g clip-path="url(#clip0_501_28439)">
<path d="M102.639 37.2954C95.1038 31.8131 86.0913 28.8804 76.9233 27.6806C67.6997 26.4753 58.0875 26.8585 48.9861 28.7804C39.8736 30.7022 31.2276 34.6571 24.5584 41.2669C18.3335 47.4435 13.9688 55.4031 11.5477 63.796C8.66567 73.7829 8.45466 84.3865 9.79293 94.6401C10.9369 103.394 13.1192 111.987 16.2844 120.224C22.4538 136.26 32.1605 150.924 44.5937 162.794C51.0851 168.993 58.3096 174.33 66.0338 178.891C74.7854 184.062 83.9922 188.411 92.7438 193.577C94.865 194.827 96.953 196.132 99.002 197.493C100.496 198.487 101.884 196.082 100.401 195.093C92.1052 189.566 83.1482 185.173 74.4022 180.418C66.3559 176.047 58.5706 171.259 51.5627 165.332C38.8407 154.568 28.601 140.976 21.6375 125.84C18.1502 118.258 15.5292 110.27 13.8355 102.1C11.842 92.4905 11.0313 82.4368 12.4695 72.6887C13.7578 63.9348 16.8619 55.4864 22.1151 48.3211C27.3627 41.1725 34.6704 36.0568 43.061 33.2518C51.7348 30.3523 61.1416 29.4914 70.2486 29.8857C79.0001 30.2634 87.846 32.0798 95.6369 36.1956C97.586 37.2232 99.4518 38.3952 101.234 39.6894C101.84 40.1282 102.784 39.795 103.133 39.1895C103.544 38.4952 103.245 37.7398 102.639 37.2954Z" fill="black"/>
<path d="M99.7954 0.419129C90.8551 10.9227 84.3414 23.4425 80.943 36.8178C79.1105 44.0386 78.0277 51.5316 79.0439 58.9636C79.9712 65.7012 82.4923 72.1111 85.6963 78.0766C89.3724 84.9197 93.9592 91.2241 98.5682 97.4562C99.0125 98.0561 99.7732 98.3616 100.467 97.9561C101.062 97.6062 101.411 96.6619 100.967 96.0565C93.1152 85.4418 84.8356 74.1829 82.1813 60.9687C80.7653 53.9312 81.4983 46.7992 83.0698 39.845C84.5247 33.3962 86.707 27.1029 89.5779 21.1485C92.8264 14.4109 96.9079 8.08434 101.756 2.39098C102.239 1.81886 102.317 0.985693 101.756 0.424689C101.261 -0.0807706 100.284 -0.158539 99.7954 0.419129Z" fill="black"/>
<path d="M98.259 36.479C91.1567 45.2884 84.843 54.6866 78.929 64.3237C72.9817 74.0163 67.301 83.8922 61.7591 93.8236C58.9437 98.8671 56.245 103.983 53.9349 109.276C51.5971 114.625 49.6813 120.141 47.8932 125.695C44.1949 137.182 40.6244 148.708 36.9927 160.211C33.4887 171.32 29.9293 182.596 29.324 194.316C29.2518 195.749 29.224 197.182 29.2462 198.615C29.2629 199.665 30.4179 200.348 31.3342 199.815C42.4735 193.36 52.9854 185.834 62.7087 177.397C72.3765 169.009 81.2502 159.706 89.1688 149.652C93.6556 143.959 97.8481 138.032 101.702 131.894C102.657 130.378 100.253 128.984 99.303 130.494C92.5783 141.198 84.843 151.246 76.2192 160.494C67.5731 169.765 58.0664 178.246 47.8322 185.734C42.0792 189.944 36.0987 193.843 29.9293 197.421C30.6234 197.82 31.3231 198.22 32.0172 198.62C31.8617 187.073 35.0103 175.875 38.4143 164.949C41.9737 153.523 45.6054 142.126 49.2093 130.717C50.9474 125.212 52.7022 119.713 54.8123 114.342C56.9058 109.021 59.438 103.894 62.1534 98.8671C67.5231 88.919 73.2483 79.1264 79.0678 69.4393C84.8041 59.8967 90.8569 50.5152 97.6593 41.6891C98.4978 40.6004 99.353 39.5228 100.214 38.4564C100.686 37.8731 100.786 37.0622 100.214 36.4901C99.7361 35.9902 98.731 35.8902 98.259 36.479Z" fill="black"/>
<path d="M99.7737 39.6951C106.976 34.4572 115.578 31.5577 124.368 30.4246C133.342 29.2693 142.726 29.6136 151.572 31.5188C160.357 33.4129 168.614 37.2122 174.956 43.6943C180.87 49.7376 184.912 57.4639 187.084 65.6012C189.71 75.4216 189.744 85.8196 188.278 95.8344C187.045 104.261 184.801 112.531 181.675 120.446C175.567 135.893 165.982 149.974 153.893 161.361C147.485 167.399 140.383 172.525 132.781 176.958C124.268 181.924 115.355 186.167 106.865 191.177C104.744 192.427 102.656 193.732 100.607 195.093C99.124 196.076 100.512 198.487 102.006 197.493C110.558 191.794 119.814 187.3 128.816 182.379C137.023 177.885 144.886 172.898 152 166.793C164.999 155.634 175.461 141.481 182.402 125.823C185.884 117.969 188.527 109.748 190.149 101.311C192.087 91.2408 192.709 80.8539 191.015 70.7058C189.516 61.7131 186.034 53.0259 180.437 45.7995C174.789 38.5008 167.159 33.3629 158.408 30.4857C149.506 27.564 139.805 26.6864 130.476 27.1197C121.319 27.5474 112.118 29.4859 103.966 33.7962C102.017 34.8238 100.151 35.9958 98.3688 37.29C97.7635 37.7288 97.4636 38.4953 97.869 39.1896C98.2244 39.795 99.1684 40.1394 99.7737 39.6951Z" fill="black"/>
<path d="M99.2509 2.37986C107.875 12.5168 114.111 24.6534 117.387 37.551C119.125 44.4052 120.258 51.6149 119.22 58.6747C118.264 65.179 115.816 71.3334 112.684 77.0768C109.046 83.7588 104.554 89.9354 100.039 96.0454C99.5952 96.6508 99.9395 97.5951 100.539 97.945C101.244 98.356 101.989 98.0506 102.438 97.4451C110.518 86.5194 118.997 74.8716 121.591 61.2353C123.001 53.8367 122.263 46.3882 120.613 39.0896C119.103 32.4019 116.804 25.9032 113.828 19.7266C110.474 12.7723 106.214 6.28468 101.217 0.402462C100.728 -0.169652 99.7562 -0.0974431 99.2509 0.402462C98.6845 0.98013 98.7623 1.80775 99.2509 2.37986Z" fill="black"/>
<path d="M100.789 38.4397C107.769 47.0992 113.956 56.3697 119.764 65.8512C125.656 75.4605 131.286 85.2475 136.778 95.0901C139.572 100.089 142.248 105.155 144.553 110.398C146.868 115.664 148.723 121.113 150.483 126.584C154.143 137.971 157.691 149.396 161.284 160.8C164.727 171.714 168.303 182.807 168.903 194.316C168.975 195.749 169.003 197.182 168.98 198.615C169.674 198.215 170.374 197.815 171.068 197.415C160.134 191.077 149.806 183.712 140.26 175.43C130.659 167.099 121.841 157.867 113.961 147.897C109.558 142.326 105.476 136.504 101.694 130.494C100.745 128.984 98.3405 130.378 99.2956 131.894C106.142 142.792 114.033 153.04 122.813 162.455C131.564 171.842 141.204 180.385 151.549 187.972C157.369 192.244 163.422 196.193 169.669 199.815C170.591 200.348 171.746 199.665 171.757 198.615C171.918 186.878 168.764 175.464 165.304 164.349C161.717 152.829 158.052 141.326 154.42 129.822C152.666 124.273 150.894 118.719 148.745 113.309C146.607 107.915 144.064 102.7 141.31 97.5896C135.901 87.5526 130.12 77.6712 124.245 67.9008C118.415 58.2138 112.251 48.71 105.332 39.7617C104.482 38.6619 103.616 37.5677 102.744 36.4846C102.272 35.9013 101.272 35.9958 100.778 36.4846C100.212 37.0567 100.317 37.8565 100.789 38.4397Z" fill="black"/>
</g>
<defs>
<clipPath id="clip0_501_28439">
<rect width="200" height="200" fill="white"/>
</clipPath>
</defs>
</svg>

<svg xmlns="http://www.w3.org/2000/svg" width="200" height="200" fill="none"><g fill="#000" clip-path="url(#a)"><path d="M102.639 37.295c-7.535-5.482-16.548-8.415-25.716-9.614-9.223-1.206-18.836-.823-27.937 1.1-9.112 1.921-17.758 5.876-24.428 12.486-6.224 6.176-10.59 14.136-13.01 22.529-2.882 9.987-3.093 20.59-1.755 30.844a111.7 111.7 0 0 0 6.491 25.584c6.17 16.036 15.877 30.7 28.31 42.57 6.491 6.199 13.716 11.536 21.44 16.097 8.751 5.171 17.958 9.52 26.71 14.686a137 137 0 0 1 6.258 3.916c1.494.994 2.882-1.411 1.399-2.4-8.296-5.527-17.253-9.92-25.999-14.675-8.046-4.371-15.831-9.159-22.84-15.086-12.721-10.764-22.961-24.356-29.924-39.492a110.6 110.6 0 0 1-7.803-23.74c-1.993-9.61-2.804-19.663-1.366-29.411 1.289-8.754 4.393-17.203 9.646-24.368 5.248-7.148 12.555-12.264 20.946-15.07 8.674-2.899 18.08-3.76 27.188-3.365 8.751.377 17.597 2.194 25.388 6.31a46 46 0 0 1 5.597 3.493c.606.44 1.55.106 1.899-.5.411-.694.112-1.45-.494-1.894"/><path d="M99.795.42c-8.94 10.503-15.454 23.022-18.852 36.398-1.832 7.22-2.915 14.714-1.9 22.146.928 6.737 3.45 13.147 6.653 19.113 3.676 6.843 8.263 13.147 12.872 19.38.445.6 1.205.905 1.899.5.595-.35.944-1.295.5-1.9-7.852-10.615-16.131-21.874-18.786-35.088-1.416-7.038-.683-14.17.889-21.124a87.4 87.4 0 0 1 6.508-18.696c3.248-6.738 7.33-13.065 12.178-18.758.483-.572.561-1.405 0-1.966-.495-.506-1.472-.584-1.96-.006"/><path d="M98.259 36.479c-7.102 8.81-13.416 18.208-19.33 27.845-5.947 9.692-11.628 19.568-17.17 29.5-2.815 5.043-5.514 10.159-7.824 15.452-2.338 5.349-4.254 10.865-6.042 16.419-3.698 11.487-7.269 23.013-10.9 34.516-3.504 11.109-7.064 22.385-7.669 34.105a65 65 0 0 0-.078 4.299c.017 1.05 1.172 1.733 2.088 1.2a204 204 0 0 0 31.375-22.418 203.3 203.3 0 0 0 26.46-27.745 204 204 0 0 0 12.533-17.758c.955-1.516-1.449-2.91-2.399-1.4a200 200 0 0 1-23.084 30c-8.646 9.271-18.153 17.752-28.387 25.24a202 202 0 0 1-17.903 11.687c.694.399 1.394.799 2.088 1.199-.155-11.547 2.993-22.745 6.397-33.671 3.56-11.426 7.191-22.823 10.795-34.232 1.738-5.505 3.493-11.004 5.603-16.375 2.094-5.321 4.626-10.448 7.341-15.475 5.37-9.948 11.095-19.74 16.915-29.428 5.736-9.542 11.789-18.924 18.591-27.75a180 180 0 0 1 2.555-3.233c.472-.583.572-1.394 0-1.966-.478-.5-1.483-.6-1.955-.011"/><path d="M99.774 39.695c7.202-5.238 15.804-8.137 24.594-9.27 8.974-1.156 18.358-.811 27.204 1.094 8.785 1.894 17.042 5.693 23.384 12.175 5.914 6.044 9.956 13.77 12.128 21.907 2.626 9.82 2.66 20.219 1.194 30.233-1.233 8.427-3.477 16.697-6.603 24.612-6.108 15.447-15.693 29.528-27.782 40.915-6.408 6.038-13.51 11.164-21.112 15.597-8.513 4.966-17.426 9.209-25.916 14.219a137 137 0 0 0-6.258 3.916c-1.483.983-.095 3.394 1.399 2.4 8.552-5.699 17.808-10.193 26.81-15.114 8.207-4.494 16.07-9.481 23.184-15.586 12.999-11.159 23.461-25.312 30.402-40.97 3.482-7.854 6.125-16.075 7.747-24.512 1.938-10.07 2.56-20.457.866-30.605-1.499-8.993-4.981-17.68-10.578-24.906-5.648-7.3-13.278-12.437-22.029-15.314-8.902-2.922-18.603-3.8-27.932-3.366-9.157.427-18.358 2.366-26.51 6.676a46 46 0 0 0-5.597 3.494c-.606.439-.905 1.205-.5 1.9.355.605 1.3.95 1.905.505"/><path d="M99.25 2.38c8.625 10.137 14.861 22.273 18.137 35.171 1.738 6.854 2.871 14.064 1.833 21.124-.956 6.504-3.404 12.658-6.536 18.402-3.638 6.682-8.13 12.858-12.645 18.968-.444.606-.1 1.55.5 1.9.705.411 1.45.106 1.899-.5 8.08-10.926 16.559-22.573 19.153-36.21 1.41-7.398.672-14.847-.978-22.145-1.51-6.688-3.809-13.187-6.785-19.363-3.354-6.955-7.614-13.442-12.611-19.325-.489-.572-1.46-.5-1.966 0-.567.578-.489 1.406 0 1.978"/><path d="M100.789 38.44c6.98 8.66 13.167 17.93 18.975 27.411 5.892 9.61 11.522 19.397 17.014 29.24 2.794 4.998 5.47 10.064 7.775 15.307 2.315 5.266 4.17 10.715 5.93 16.186 3.66 11.387 7.208 22.812 10.801 34.216 3.443 10.914 7.019 22.007 7.619 33.516q.11 2.15.077 4.299l2.088-1.2a200.4 200.4 0 0 1-30.808-21.985 204 204 0 0 1-26.299-27.533c-4.403-5.571-8.485-11.393-12.267-17.403-.949-1.51-3.353-.116-2.398 1.4a204 204 0 0 0 23.517 30.561 205 205 0 0 0 28.736 25.517 201 201 0 0 0 18.12 11.843c.922.533 2.077-.15 2.088-1.2.161-11.737-2.993-23.151-6.453-34.266-3.587-11.52-7.252-23.023-10.884-34.527-1.754-5.549-3.526-11.103-5.675-16.513-2.138-5.394-4.681-10.609-7.435-15.72-5.409-10.036-11.19-19.918-17.065-29.688-5.83-9.687-11.994-19.191-18.913-28.14-.85-1.1-1.716-2.193-2.588-3.276-.472-.584-1.472-.49-1.966 0-.566.572-.461 1.371.011 1.955"/></g><defs><clipPath id="a"><path fill="#fff" d="M0 0h200v200H0z"/></clipPath></defs></svg>
